app/images/icons/facebook.svg

<svg xmlns="http://www.w3.org/2000/svg" preserveAspectRatio="xMidYMid" width="8.13" height="15.43"><path d="M6.1-.005c.413 0 .828.022 1.24.04.268.011.537.05.789.077L8.11 2.597h-.198c-.272 0-.545-.003-.818-.003a17.9 17.9 0 00-.613.008c-.659.022-1.144.269-1.177 1.092-.021.592-.036 1.901-.037 1.969l1.34.002c.327 0 .647 0 .871-.002h.531c-.133.955-.255 1.87-.388 2.792H5.267l-.053 6.971h-2.89l.053-6.982H.013l.021-2.776h2.375l.002-.208c.004-.559-.003-1.119.018-1.678.008-.351.027-.713.091-1.065.16-.849.554-1.563 1.266-2.073C4.409.2 5.118.013 5.87-.003c.076-.002.153-.002.23-.002z" fill="#a1a1a1" fill-rule="evenodd"/></svg>

<svg xmlns="http://www.w3.org/2000/svg" xmlns:xlink="http://www.w3.org/1999/xlink" preserveAspectRatio="xMidYMid" width="8.13" height="15.43" viewBox="0 0 8.13 15.43">
  <defs>
    <style>
      .cls-1 {
        fill: #a1a1a1;
        fill-rule: evenodd;
      }
    </style>
  </defs>
  <path d="M6.100,-0.005 C6.513,-0.005 6.928,0.017 7.340,0.035 C7.608,0.046 7.877,0.085 8.129,0.112 L8.110,2.597 L7.912,2.597 C7.640,2.597 7.367,2.594 7.094,2.594 C6.890,2.594 6.685,2.595 6.481,2.602 C5.822,2.624 5.337,2.871 5.304,3.694 C5.283,4.286 5.268,5.595 5.267,5.663 C5.301,5.663 5.952,5.665 6.607,5.665 C6.934,5.665 7.254,5.665 7.478,5.663 L8.009,5.663 C7.876,6.618 7.754,7.533 7.621,8.455 L5.267,8.455 L5.214,15.426 L2.324,15.426 L2.377,8.444 L0.013,8.444 L0.034,5.668 L2.409,5.668 L2.411,5.460 C2.415,4.901 2.408,4.341 2.429,3.782 C2.437,3.431 2.456,3.069 2.520,2.717 C2.680,1.868 3.074,1.154 3.786,0.644 C4.409,0.200 5.118,0.013 5.870,-0.003 C5.946,-0.005 6.023,-0.005 6.100,-0.005 Z" class="cls-1"/>
</svg>
